assets/img/braze_icons/roller-brush.svg

<svg fill="none" height="24" viewBox="0 0 24 24" width="24" xmlns="http://www.w3.org/2000/svg"><path d="m5.4162 1.00004c-.38069-.0003-.70853-.000561-1.00138.05769-1.19008.23672-2.12037 1.16701-2.35709 2.35709-.05825.29285-.05799.62068-.05769 1.00138l.00005.08389-.00005.08388c-.0003.3807-.00056.70854.05769 1.00139.23672 1.19007 1.16701 2.12036 2.35709 2.35708.29285.05826.62068.05799 1.00138.05769h11.1678c.3807.0003.7085.00057 1.0014-.05769 1.19-.23672 2.1203-1.16701 2.357-2.35708.0048-.02406.0092-.04836.0132-.0729.0243.00128.0478.00269.0706.00425.228.01556.3149.04217.3565.05941.245.1015.4397.29617.5412.5412.0172.04161.0438.12844.0594.35644.0162.23698.0167.54662.0167 1.02624v.3c0 .57655-.0008.94883-.0239 1.23217-.0222.27166-.0599.37238-.0851.42182-.0959.18816-.2488.34114-.437.43702-.0495.02519-.1502.06287-.4218.08506-.2834.02315-.6556.02393-1.2322.02393h-3.6385c-.5272-.00002-.982-.00003-1.3565.0306-.3954.0323-.7886.1036-1.167.2964-.5645.2876-1.0234.7465-1.311 1.311-.1928.3784-.2641.7716-.2964 1.167-.0276.3378-.0303.7407-.0306 1.2032-.0476.0023-.0938.0051-.1382.0088-.2286.0186-.4984.0627-.7698.201-.3763.1917-.68226.4977-.87401.874-.1383.2714-.18236.5412-.20104.7698-.01701.2081-.01698.4539-.01695.7063v3.8638c-.00003.2524-.00006.4982.01695.7063.01868.2286.06274.4984.20104.7698.19175.3763.49771.6823.87401.874.2714.1383.5412.1824.7698.2011.2081.017.4539.0169.7063.0169h.8638c.2524 0 .4982.0001.7063-.0169.2286-.0187.4984-.0628.7698-.2011.3763-.1917.6823-.4977.874-.874.1383-.2714.1824-.5412.2011-.7698.017-.2081.0169-.4539.0169-.7063v-3.8638c0-.2524.0001-.4982-.0169-.7063-.0187-.2286-.0628-.4984-.2011-.7698-.1917-.3763-.4977-.6823-.874-.874-.2714-.1383-.5412-.1824-.7698-.201-.0444-.0037-.0906-.0065-.1381-.0088.0004-.4696.0034-.7898.0238-1.0404.0222-.2716.0599-.3723.0851-.4218.0959-.1882.2488-.3411.437-.437.0495-.0252.1502-.0629.4218-.0851.2834-.0231.6556-.0239 1.2322-.0239h3.6385c.5272 0 .982 0 1.3565-.0306.3954-.0323.7886-.1036 1.167-.2964.5645-.2876 1.0234-.7465 1.311-1.311.1928-.37841.2641-.77163.2964-1.16697.0306-.37453.0306-.82924.0306-1.35632v-.3707c0-.43865 0-.81713-.0213-1.13039-.0226-.32983-.0721-.65974-.2071-.98567-.3044-.73508-.8885-1.31911-1.6235-1.62359-.326-.135-.6559-.18451-.9857-.20701-.0649-.00443-.1326-.00794-.2031-.01072-.005-.03236-.0106-.06429-.0169-.09581-.2367-1.19008-1.167-2.12037-2.357-2.35709-.2929-.058251-.6207-.05799-1.0014-.05769z" fill="#801ed7"/></svg>

<svg width="24" height="24" viewBox="0 0 24 24" fill="none" xmlns="http://www.w3.org/2000/svg">
<path d="M5.4162 1.00004C5.03551 0.99974 4.70767 0.999479 4.41482 1.05773C3.22474 1.29445 2.29445 2.22474 2.05773 3.41482C1.99948 3.70767 1.99974 4.0355 2.00004 4.4162L2.00009 4.50009L2.00004 4.58397C1.99974 4.96467 1.99948 5.29251 2.05773 5.58536C2.29445 6.77543 3.22474 7.70572 4.41482 7.94244C4.70767 8.0007 5.0355 8.00043 5.4162 8.00013H16.584C16.9647 8.00043 17.2925 8.0007 17.5854 7.94244C18.7754 7.70572 19.7057 6.77543 19.9424 5.58536C19.9472 5.5613 19.9516 5.537 19.9556 5.51246C19.9799 5.51374 20.0034 5.51515 20.0262 5.51671C20.2542 5.53227 20.3411 5.55888 20.3827 5.57612C20.6277 5.67762 20.8224 5.87229 20.9239 6.11732C20.9411 6.15893 20.9677 6.24576 20.9833 6.47376C20.9995 6.71074 21 7.02038 21 7.5V7.8C21 8.37655 20.9992 8.74883 20.9761 9.03217C20.9539 9.30383 20.9162 9.40455 20.891 9.45399C20.7951 9.64215 20.6422 9.79513 20.454 9.89101C20.4045 9.9162 20.3038 9.95388 20.0322 9.97607C19.7488 9.99922 19.3766 10 18.8 10L15.1615 10C14.6343 9.99998 14.1795 9.99997 13.805 10.0306C13.4096 10.0629 13.0164 10.1342 12.638 10.327C12.0735 10.6146 11.6146 11.0735 11.327 11.638C11.1342 12.0164 11.0629 12.4096 11.0306 12.805C11.003 13.1428 11.0003 13.5457 11 14.0082C10.9524 14.0105 10.9062 14.0133 10.8618 14.017C10.6332 14.0356 10.3634 14.0797 10.092 14.218C9.7157 14.4097 9.40974 14.7157 9.21799 15.092C9.07969 15.3634 9.03563 15.6332 9.01695 15.8618C8.99994 16.0699 8.99997 16.3157 9 16.5681V20.4319C8.99997 20.6843 8.99994 20.9301 9.01695 21.1382C9.03563 21.3668 9.07969 21.6366 9.21799 21.908C9.40974 22.2843 9.7157 22.5903 10.092 22.782C10.3634 22.9203 10.6332 22.9644 10.8618 22.9831C11.0699 23.0001 11.3157 23 11.5681 23H12.4319C12.6843 23 12.9301 23.0001 13.1382 22.9831C13.3668 22.9644 13.6366 22.9203 13.908 22.782C14.2843 22.5903 14.5903 22.2843 14.782 21.908C14.9203 21.6366 14.9644 21.3668 14.9831 21.1382C15.0001 20.9301 15 20.6843 15 20.4319V16.5681C15 16.3157 15.0001 16.0699 14.9831 15.8618C14.9644 15.6332 14.9203 15.3634 14.782 15.092C14.5903 14.7157 14.2843 14.4097 13.908 14.218C13.6366 14.0797 13.3668 14.0356 13.1382 14.017C13.0938 14.0133 13.0476 14.0105 13.0001 14.0082C13.0005 13.5386 13.0035 13.2184 13.0239 12.9678C13.0461 12.6962 13.0838 12.5955 13.109 12.546C13.2049 12.3578 13.3578 12.2049 13.546 12.109C13.5955 12.0838 13.6962 12.0461 13.9678 12.0239C14.2512 12.0008 14.6234 12 15.2 12L18.8385 12C19.3657 12 19.8205 12 20.195 11.9694C20.5904 11.9371 20.9836 11.8658 21.362 11.673C21.9265 11.3854 22.3854 10.9265 22.673 10.362C22.8658 9.98359 22.9371 9.59037 22.9694 9.19503C23 8.8205 23 8.36579 23 7.83871V7.46801C23 7.02936 23 6.65088 22.9787 6.33762C22.9561 6.00779 22.9066 5.67788 22.7716 5.35195C22.4672 4.61687 21.8831 4.03284 21.1481 3.72836C20.8221 3.59336 20.4922 3.54385 20.1624 3.52135C20.0975 3.51692 20.0298 3.51341 19.9593 3.51063C19.9543 3.47827 19.9487 3.44634 19.9424 3.41482C19.7057 2.22474 18.7754 1.29445 17.5854 1.05773C17.2925 0.999479 16.9647 0.99974 16.584 1.00004H5.4162Z" fill="#801ED7"/>
</svg>
